usr/share/icons/biglinux-icons-material/16/actions/debug-step-out.svg

<svg xmlns="http://www.w3.org/2000/svg" viewBox="0 0 16 16">
  <defs id="defs3051">
    <style type="text/css" id="current-color-scheme">
      .ColorScheme-Text {
        color:#dedede;
      }
      .ColorScheme-NeutralText {
        color:#f67400;
      }
      </style>
  </defs>
 <path style="fill:currentColor;fill-opacity:1;stroke:none" 
     d="M 2 2 L 2 14 L 14 14 L 14 5 L 13 5 L 13 13 L 3 13 L 3 5 L 10 5 L 10 2 L 3 2 L 2 2 z M 7 6 C 5.934 6 5.4863281 6.3519062 5.4863281 7.2539062 C 5.4863281 7.2539062 5.4620781 7.841 5.4550781 8 C 5.4090781 8.369 5.2799531 8.6777344 4.8769531 8.6777344 L 4.5722656 8.6777344 L 4.5722656 9.3222656 L 4.8769531 9.3222656 C 5.4659531 9.3222656 5.4863281 9.9664375 5.4863281 10.523438 C 5.4813281 10.697437 5.4999063 10.892953 5.5039062 11.001953 C 5.5869063 11.713953 6.042 12.001953 7 12.001953 L 7 11.408203 C 6.55 11.408203 6.3940781 11.291953 6.3300781 11.001953 C 6.2960781 10.885953 6.2932969 10.487875 6.2792969 10.296875 C 6.2792969 9.881875 6.1556406 9.2618594 5.5566406 9.0058594 C 6.0296406 8.8028594 6.2009063 8.3778594 6.2539062 8.0058594 C 6.2779063 7.9018594 6.2713438 7.7821719 6.2773438 7.7011719 C 6.2773438 6.8351719 6.2870469 6.5976562 6.9980469 6.5976562 L 7 6 z M 9 6 L 9.0019531 6.5976562 C 9.7129531 6.5976563 9.7226562 6.8351719 9.7226562 7.7011719 C 9.7286564 7.7821719 9.7220937 7.9018594 9.7460938 8.0058594 C 9.7990936 8.3778594 9.9703598 8.8028594 10.443359 9.0058594 C 9.8443598 9.2618594 9.7207031 9.881875 9.7207031 10.296875 C 9.7067031 10.487875 9.7039219 10.885953 9.6699219 11.001953 C 9.6059219 11.291953 9.45 11.408203 9 11.408203 L 9 12.001953 C 9.958 12.001953 10.413094 11.713953 10.496094 11.001953 C 10.500094 10.892953 10.518672 10.697437 10.513672 10.523438 C 10.513672 9.966437 10.534047 9.3222656 11.123047 9.3222656 L 11.427734 9.3222656 L 11.427734 8.6777344 L 11.123047 8.6777344 C 10.720047 8.6777344 10.590922 8.369 10.544922 8 C 10.537922 7.841 10.513672 7.2539062 10.513672 7.2539062 C 10.513672 6.3519062 10.066 6 9 6 z "
     class="ColorScheme-Text"
     />
  <path
       style="fill:currentColor;fill-opacity:1;stroke:none" 
     class="ColorScheme-NeutralText"
    d="M 11,5 14,3.5 11,2 Z" />
</svg>

<svg xmlns="http://www.w3.org/2000/svg" viewBox="0 0 16 16"><path d="M2 2v12h12V5h-1v8H3V5h7V2H2zm5 4c-1.066 0-1.514.352-1.514 1.254L5.456 8c-.047.369-.176.678-.579.678h-.305v.644h.305c.589 0 .61.644.61 1.201-.006.174.013.37.017.479.083.712.538 1 1.496 1v-.594c-.45 0-.606-.116-.67-.406-.034-.116-.037-.514-.05-.705 0-.415-.124-1.035-.723-1.291.473-.203.644-.628.697-1 .024-.104.017-.224.023-.305 0-.866.01-1.103.721-1.103L7 6zm2 0 .002.598c.711 0 .72.237.72 1.103.007.081 0 .2.024.305.053.372.224.797.697 1-.599.256-.722.876-.722 1.29-.014.192-.017.59-.051.706-.064.29-.22.406-.67.406v.594c.958 0 1.413-.288 1.496-1 .004-.109.023-.305.018-.479 0-.557.02-1.2.609-1.2h.305v-.645h-.305c-.403 0-.532-.309-.578-.678l-.031-.746C10.514 6.352 10.066 6 9 6z" style="fill:currentColor;fill-opacity:1;stroke:none;color:#dedede"/><path d="m11 5 3-1.5L11 2Z" style="fill:currentColor;fill-opacity:1;stroke:none;color:#f67400"/></svg>
